X: 37508
T: Sligo, The
R: reel
M: 4/4
K: Dmajor
|:BdAd ~B2 (3dcB|AD (3FED AD (3FED|~E3F ~G3A|~B3d egfe|
(d2 (3edc d)BAG|(3FED AD BDAD|GFEF GABc|dBAF BE E2:|
|:(3Bcd e2 .ef (3gfe|be (3eee befe|d2{e}dc defg|ad (3ddd adfd|
(3efe df edBc|dedB AFDF|EFGA {Bd}B2B.d|dBAF BE E2:|

